X:1
T:Gonfalon Royal, LM
T:Gonfalon Royal, LM
T:Percy Carter Buck, 1918
T:Public Domain Courtesy of the Cyber Hymnal™
C:Percy Carter Buck, 1918
Z:Public Domain
Z:Courtesy of the Cyber Hymnal™
%%score ( 1 2 ) ( 3 4 )
L:1/8
Q:1/4=108
M:none
K:Ab
V:1 treble 
V:2 treble 
V:3 bass 
V:4 bass 
V:1
 [C-E]2 | [CF]2 [DA]2 [Fd]2 (cB) | c2 A2 F4- x2 | F2 F2 B2 [E-G]2 | _E2 A2 (BA) x8 | [EB]6 [_GB]2 | %6
 e2 c2 A3 A | d2 B2 [=EG]2 ([=DF][EG]) | (AB) (cB) [Fd]2 [Ec]2 | [FB]2 [DF]2 [B,E]4- | [B,E]2 |] %11
V:2
 x2 | x6 E2- | E4 D2 E2 x2 | D6 x2 | _E6 (dc) =D2 x4 | x8 | _G4 F4- | F4 x4 | F2 _G2 x4 | x8 | %10
 x2 |] %11
V:3
 A,2 | [F,A,]2 [D,F,]2 [B,,A,]2 [E,G,]2 | A,6 E,2 [C,=A,]2 | B,4 [G,,E,]2 [D,B,-]2 | B,2 z2 x10 | %5
 (A,2 G,2 _G,2) (ED) | (CD) E2- E2 (DC) | (B,C) D2 [C,C-]4 | [F,C]2 [E,_G,]2 [B,,B,]2 (=G,=A,) | %9
 [D,B,]2 [B,,_A,]2 z2 G,2 | [E,G,]2 |] %11
V:4
 A,2 | x8 | =A,,2 C,2 D,2 x4 | B,,2 A,,2 x4 | C,4 A,6- F,,2 F,2 | E,6 E,2 | A,,4 D,4 | G,,4 x4 | %8
 x6 C,2 | x4 E,4 | x2 |] %11

